X: 20913
Q: "Slow."
M: 3/8
L: 1/16
K: C
c2 |\
e2f2d2 | g4f>e | d2f2B2 | c4G>G |\
d2c2B2 | A2B2c2 | B4d2 | e4z2 |\
z2z2e2 | d4z2 | z2z2d2 | e2^f2g2 |\
c3dB2 |
c2c2d2 | e2f2d2 | c2B2A2 | G4G>G |\
g2e2c2 |
g2e2a2 | g4G2 | d4z2 |\
z2z2G2 | e4z2 | z2z2G2 | f2d2f2 |\
e2c2e2 | d4g2 | g2e2a2 | g2e2c2 |\
g2e2a2 | Hg4G2 | A2f2d2 | c3dB2 |\
c4c2 | g2(fe)(dc) | e3fd2 | c4z2 |]


